X:120 
T:Knocknaboul Polka (2) 
B:CRE3.065 (Polca Chnoc na bPoll (2))
F:file ID: cre.3/120knock2
R:polka
Q:120
M:2/4
L:1/8
K:G
D|GB B/c/B/A/|GB BA|FA AB/A/|FA D2|
GB BA|GB d>e|fd cA|G2 G:|
|:G|g>g gd|ga aa/g/|fd d>e|fg a/f/d|
g>g g>g|fb aa/g/|fd cA|1 G2 G:|2 G2||
|:BA|B>A Bc|d>c AG|F>E FG|AB c/B/A|
BB/A/ Bc|dc A>g|fd cA|G2:|

%%%

